; generated by PrusaSlicer 2.8.1+MacOS-arm64 on 2024-11-21 at 13:48:28 UTC

; external perimeters extrusion width = 0.45mm
; perimeters extrusion width = 0.45mm
; infill extrusion width = 0.45mm
; solid infill extrusion width = 0.45mm
; top infill extrusion width = 0.42mm
; first layer extrusion width = 0.50mm

M73 P0 R5 ; sets print progress normal mode
M73 Q0 S5 ; sets print progress stealth/silent mode
M201 X4000 Y4000 Z200 E2500 ; sets maximum accelerations, mm/sec^2
M203 X300 Y300 Z40 E100 ; sets maximum feedrates, mm / sec
M204 P4000 R1200 T4000 ; sets acceleration (P, T) and retract acceleration (R), mm/sec^2
M205 X8.00 Y8.00 Z2.00 E10.00 ; sets the jerk limits, mm/sec
M205 S0 T0 ; sets the minimum extruding and travel feed rate, mm/sec

; code for canceling and labeling objects in multi object print
M486 S0
M486 AShape-Box
M486 S-1

;TYPE:Custom
M17 ; enable steppers
M862.1 P0.4 A0 F1 ; nozzle check
M862.3 P "MK4S" ; printer model check
M862.5 P2 ; g-code level check
M862.6 P"Input shaper" ; FW feature check
M115 U6.1.3+7898

M555 X120 Y96 W32 H14 ; setting bed printing area

G90 ; use absolute coordinates
M83 ; extruder relative mode

M140 S60 ; set bed temp
M104 T0 S170 ; set extruder temp for bed leveling
M109 T0 R170 ; wait for temp

M84 E ; turn off E motor

G28 ; home all without mesh bed level

G1 X42 Y-4 Z5 F4800

M302 S160 ; lower cold extrusion limit to 160C


G1 E-2 F2400 ; retraction


M84 E ; turn off E motor

G29 P9 X10 Y-4 W32 H4

M106 S100 ; set fan speed

G0 Z40 F10000

M190 S60 ; wait for bed temp

M107 ; fan off

;
; Mesh bed leveling
;
M84 E ; turn off E motor
G29 P1 ; invalidate mesh bed leveling & probe print area
G29 P1 X0 Y0 W50 H20 C ; probe near purge place
G29 P3.2 ; interpolate mesh bed leveling probes
G29 P3.13 ; extrapolate mesh bed leveling outside probe area
G29 A ; activate mesh bed leveling

; prepare for purge
M104 S230
G0 X0 Y-4 Z15 F4800 ; move away and ready for the purge
M109 S230

G92 E0
M569 S0 E ; set spreadcycle mode for extruder

;
; Extrude purge line
;
G92 E0 ; reset extruder position
G1 E2 F2400 ; deretraction after the initial one before nozzle cleaning
G0 E7 X15 Z0.2 F500 ; purge
G0 X25 E4 F500 ; purge
M73 P1 R5
M73 Q1 S5
G0 X35 E4 F650 ; purge
G0 X45 E4 F800 ; purge
M73 P2 R5
M73 Q2 S5
G0 X48 Z0.05 F8000 ; wipe, move close to the bed
G0 X51 Z0.2 F8000 ; wipe, move quickly away from the bed

G92 E0
M221 S100 ; set flow to 100%
G21 ; set units to millimeters
G90 ; use absolute coordinates
M83 ; use relative distances for extrusion
M572 S0.036 ; Filament gcode

M142 S36 ; set heatbreak target temp
M107 ; fan off


;------------------------------------------------
; START PRINT
;------------------------------------------------

;LAYER_CHANGE
;Z:0.2
;HEIGHT:0.2
G1 E-.7 F2100
G1 Z.8 F720
M486 S0
G1 X129.093 Y109.093 F18000
G1 Z.2 F720
G1 E.7 F1500
M204 P500
;TYPE:Perimeter
;WIDTH:0.499999
G1 F2350
G1 X120.907 Y109.093 E.31112
G1 X120.907 Y100.907 E.31112
G1 X129.093 Y100.907 E.31112
G1 X129.093 Y105 E.15556
M73 Q3 S5
G1 X129.093 Y109.033 E.15328
M73 P3 R5
M204 P2500
M204 T4000
G1 X129.55 Y109.55 F18000
M204 P500
;TYPE:External perimeter
G1 F2350
G1 X120.45 Y109.55 E.34586
G1 X120.45 Y100.45 E.34586
G1 X129.55 Y100.45 E.34586
G1 X129.55 Y105 E.17293
G1 X129.55 Y109.49 E.17065
M204 P2500
G1 X129.154 Y109.549 F18000
G1 E-.7 F2100
G1 X128.91 Y102.028 Z.331 F18000
G1 Z.2 F720
G1 E.7 F1500
M204 P500
;TYPE:Solid infill
;WIDTH:0.506421
G1 F2350
G1 X128.178 Y101.296 E.0399
G1 X127.523 Y101.296 E.02524
G1 X128.704 Y102.477 E.06437
G1 X128.704 Y103.133 E.02528
G1 X126.867 Y101.296 E.10012
G1 X126.212 Y101.296 E.02524
G1 X128.704 Y103.788 E.13582
G1 X128.704 Y104.444 E.02528
G1 X125.556 Y101.296 E.17158
G1 X124.901 Y101.296 E.02524
G1 X128.704 Y105.099 E.20728
G1 X128.704 Y105.755 E.02528
G1 X124.245 Y101.296 E.24303
G1 X123.59 Y101.296 E.02524
G1 X128.704 Y106.41 E.27873
G1 X128.704 Y107.066 E.02528
G1 X122.934 Y101.296 E.31449
G1 X122.279 Y101.296 E.02524
M73 P4 R5
M73 Q4 S5
G1 X128.704 Y107.721 E.35019
G1 X128.704 Y108.377 E.02528
G1 X121.623 Y101.296 E.38594
G1 X121.296 Y101.296 E.0126
G1 X121.296 Y101.623 E.0126
G1 X128.377 Y108.704 E.38594
G1 X127.721 Y108.704 E.02528
G1 X121.296 Y102.279 E.35019
G1 X121.296 Y102.934 E.02524
G1 X127.066 Y108.704 E.31449
G1 X126.41 Y108.704 E.02528
G1 X121.296 Y103.59 E.27873
G1 X121.296 Y104.245 E.02524
G1 X125.755 Y108.704 E.24303
G1 X125.099 Y108.704 E.02528
G1 X121.296 Y104.901 E.20728
G1 X121.296 Y105.556 E.02524
G1 X124.444 Y108.704 E.17158
G1 X123.788 Y108.704 E.02528
G1 X121.296 Y106.212 E.13582
G1 X121.296 Y106.867 E.02524
G1 X123.133 Y108.704 E.10012
G1 X122.477 Y108.704 E.02528
G1 X121.296 Y107.523 E.06437
G1 X121.296 Y108.178 E.02524
G1 X122.027 Y108.91 E.03987
M73 Q5 S5
M204 P2500
M106 S127.5
;LAYER_CHANGE
;Z:0.4
;HEIGHT:0.2
;BEFORE_LAYER_CHANGE
G92 E0.0
;0.4
M201 X3999.98 Y3999.98

G1 E-.7 F2100
G1 X122.027 Y108.91 Z.2 F18000
G1 X129.368 Y109.368 Z.4
;AFTER_LAYER_CHANGE
;0.4
M74 W0.0230749

G1 X129.368 Y109.368
M73 P5 R5
G1 Z.4 F720
G1 E.7 F1500
;TYPE:Perimeter
;WIDTH:0.449999
G1 F2605.454
G1 X120.632 Y109.368 E.2957
G1 X120.632 Y100.632 E.2957
G1 X129.368 Y100.632 E.2957
G1 F2607.526
G1 X129.368 Y109.308 E.29367
G1 X129.775 Y109.775 F18000
M204 P1500
;TYPE:External perimeter
G1 F2574.784
G1 X129.1 Y109.775 E.02285
G1 F2585.712
G1 X120.9 Y109.775 E.27756
G1 F2578.297
G1 X120.225 Y109.775 E.02285
G1 F2574.782
G1 X120.225 Y109.1 E.02285
G1 F2585.71
G1 X120.225 Y100.9 E.27756
G1 F2578.296
G1 X120.225 Y100.225 E.02285
G1 F2574.782
G1 X120.9 Y100.225 E.02285
G1 F2585.71
G1 X129.1 Y100.225 E.27756
G1 F2578.296
G1 X129.775 Y100.225 E.02285
G1 F2574.783
G1 X129.775 Y100.9 E.02285
G1 F2596.192
G1 X129.775 Y109.1 E.27756
G1 F2577.34
G1 X129.775 Y109.715 E.02082
M204 P2500
G1 X129.379 Y109.774 F18000
G1 E-.7 F2100
G1 X121.089 Y101.011 Z.611 F18000
G1 Z.4 F720
G1 E.7 F1500
M204 P3000
;TYPE:Solid infill
;WIDTH:0.548766
G1 F2689
G2 X121.072 Y101.072 I-.059 J.017 E.01322
;WIDTH:0.449999
G1 X120.978 Y101.722 E.02223
G1 X121.722 Y100.978 E.03561
G1 X122.298 Y100.978 E.0195
G1 X120.978 Y102.298 E.06319
G1 X120.978 Y102.874 E.0195
G1 X122.874 Y100.978 E.09076
G1 X123.45 Y100.978 E.0195
G1 X120.978 Y103.45 E.11833
G1 X120.978 Y104.025 E.01946
G1 X124.025 Y100.978 E.14586
G1 X124.601 Y100.978 E.0195
G1 X120.978 Y104.601 E.17343
G1 X120.978 Y105.177 E.0195
G1 X125.177 Y100.978 E.201
G1 X125.752 Y100.978 E.01946
G1 X120.978 Y105.752 E.22853
G1 X120.978 Y106.328 E.0195
M73 Q6 S5
G1 X126.328 Y100.978 E.2561
G1 X126.904 Y100.978 E.0195
M73 P6 R5
G1 X120.978 Y106.904 E.28367
G1 X120.978 Y107.479 E.01946
G1 X127.479 Y100.978 E.3112
G1 X128.055 Y100.978 E.0195
G1 X120.978 Y108.055 E.33877
G1 X120.978 Y108.631 E.0195
G1 X128.631 Y100.978 E.36634
G1 X129.161 Y100.869 E.01832
;WIDTH:0.38292
G1 X129.09 Y100.85 E.00208
G1 X129.109 Y100.921 E.00208
G1 X129.15 Y100.91 E.0012
;WIDTH:0.41646
G1 X129.086 Y101.036 E.00439
;WIDTH:0.449999
G1 X129.022 Y101.163 E.00481
G1 X121.163 Y109.022 E.37621
G1 X121.036 Y109.086 E.00481
;WIDTH:0.41646
G1 X120.91 Y109.15 E.00439
;WIDTH:0.38292
G1 X120.869 Y109.161 E.0012
G1 X120.85 Y109.09 E.00208
G1 X120.921 Y109.109 E.00208
M204 P2500
G1 X120.921 Y109.109 F18000
G1 X121.738 Y109.022
M204 P3000
;WIDTH:0.449999
G1 F2689
G1 X129.022 Y101.738 E.34868
G1 X129.022 Y102.314 E.0195
G1 X122.314 Y109.022 E.32111
G1 X122.89 Y109.022 E.0195
G1 X129.022 Y102.89 E.29354
G1 X129.022 Y103.465 E.01946
G1 X123.465 Y109.022 E.26601
G1 X124.041 Y109.022 E.0195
G1 X129.022 Y104.041 E.23844
G1 X129.022 Y104.617 E.0195
G1 X124.617 Y109.022 E.21086
G1 X125.193 Y109.022 E.0195
G1 X129.022 Y105.193 E.18329
G1 X129.022 Y105.768 E.01946
G1 X125.768 Y109.022 E.15577
G1 X126.344 Y109.022 E.0195
G1 X129.022 Y106.344 E.12819
G1 X129.237 Y106.752 E.01561
M73 Q7 S5
;WIDTH:0.38292
G1 X129.166 Y106.733 E.00208
G1 X129.185 Y106.804 E.00208
G1 X129.226 Y106.793 E.0012
;WIDTH:0.41646
G1 X129.124 Y106.857 E.00374
;WIDTH:0.449999
G1 X129.022 Y106.92 E.00406
G1 X126.92 Y109.022 E.10062
G1 X126.857 Y109.124 E.00406
M73 P7 R5
;WIDTH:0.41646
G1 X126.793 Y109.226 E.00374
;WIDTH:0.38292
G1 X126.752 Y109.237 E.0012
G1 X126.733 Y109.166 E.00208
G1 X126.804 Y109.185 E.00208
M204 P2500
G1 E-.7 F2100
G1 X126.804 Y109.185 F18000
G1 X128.878 Y107.639 Z.445
G1 Z.4 F720
G1 E.7 F1500
M204 P3000
;WIDTH:0.449999
G1 F2689
G1 X127.495 Y109.022 E.0662
G1 X129.022 Y109.022 E.05169
G1 X129.022 Y107.495 E.05169
M204 P2500
G1 X129.022 Y107.495 F18000
G1 X128.634 Y108.559
M204 P3000
;WIDTH:0.530084
G1 F2689
G2 X128.618 Y108.618 I-.056 J.017 E.01225
M204 P2500
M106 S252.45
;LAYER_CHANGE
;Z:0.6
;HEIGHT:0.2
;BEFORE_LAYER_CHANGE
G92 E0.0
;0.6
M201 X3999.95 Y3999.95

G1 X128.618 Y108.618 Z.4 F18000
G1 X129.368 Y109.368 Z.6 F4386.028
;AFTER_LAYER_CHANGE
;0.6
M74 W0.0481395

G1 X129.368 Y109.368 F18000
G1 Z.6 F720
;TYPE:Perimeter
;WIDTH:0.449999
G1 F2547
G1 X120.632 Y109.368 E.2957
G1 X120.632 Y100.632 E.2957
G1 X129.368 Y100.632 E.2957
G1 X129.368 Y109.308 E.29367
G1 X129.775 Y109.775 F18000
M204 P1500
;TYPE:External perimeter
G1 F2547
G1 X120.225 Y109.775 E.32326
G1 X120.225 Y100.225 E.32326
M73 P7 R4
G1 X129.775 Y100.225 E.32326
G1 X129.775 Y109.715 E.32122
M204 P2500
G1 X129.379 Y109.774 F18000
G1 E-.7 F2100
G1 X121.011 Y108.911 Z.747 F18000
G1 Z.6 F720
G1 E.7 F1500
M204 P3000
;TYPE:Solid infill
;WIDTH:0.548766
G1 F2547
G2 X121.072 Y108.928 I.017 J.059 E.01322
;WIDTH:0.449999
G1 X120.978 Y108.278 E.02223
G1 X121.722 Y109.022 E.03561
G1 X122.298 Y109.022 E.0195
G1 X120.978 Y107.702 E.06319
G1 X120.978 Y107.126 E.0195
G1 X122.874 Y109.022 E.09076
G1 X123.45 Y109.022 E.0195
G1 X120.978 Y106.551 E.11831
G1 X120.978 Y105.975 E.0195
G1 X124.025 Y109.022 E.14586
G1 X124.601 Y109.022 E.0195
G1 X120.978 Y105.399 E.17343
G1 X120.978 Y104.823 E.0195
M73 Q8 S5
G1 X125.177 Y109.022 E.201
G1 X125.752 Y109.022 E.01946
M73 P8 R4
G1 X120.978 Y104.248 E.22853
G1 X120.978 Y103.672 E.0195
G1 X126.328 Y109.022 E.2561
G1 X126.904 Y109.022 E.0195
G1 X120.978 Y103.096 E.28367
G1 X120.978 Y102.521 E.01946
G1 X127.479 Y109.022 E.3112
G1 X128.055 Y109.022 E.0195
G1 X120.978 Y101.945 E.33877
G1 X120.978 Y101.369 E.0195
G1 X128.631 Y109.022 E.36634
G1 X129.109 Y109.079 E.01629
;WIDTH:0.38292
G1 X129.09 Y109.15 E.00208
G1 X129.161 Y109.131 E.00208
G1 X129.15 Y109.09 E.0012
;WIDTH:0.41646
G1 X129.086 Y108.964 E.00439
;WIDTH:0.449999
G1 X129.022 Y108.837 E.00481
G1 X121.163 Y100.978 E.37621
G1 X121.036 Y100.914 E.00481
M73 Q8 S4
;WIDTH:0.41646
G1 X120.91 Y100.85 E.00439
;WIDTH:0.38292
G1 X120.921 Y100.891 E.0012
G1 X120.85 Y100.91 E.00208
G1 X120.869 Y100.839 E.00208
M204 P2500
G1 X120.869 Y100.839 F18000
G1 X121.738 Y100.978
M204 P3000
;WIDTH:0.449999
G1 F2547
G1 X129.022 Y108.262 E.34868
G1 X129.022 Y107.686 E.0195
G1 X122.314 Y100.978 E.32111
G1 X122.89 Y100.978 E.0195
G1 X129.022 Y107.11 E.29354
G1 X129.022 Y106.535 E.01946
G1 X123.465 Y100.978 E.26601
G1 X124.041 Y100.978 E.0195
G1 X129.022 Y105.959 E.23844
G1 X129.022 Y105.383 E.0195
G1 X124.617 Y100.978 E.21086
G1 X125.193 Y100.978 E.0195
M73 Q9 S4
G1 X129.022 Y104.807 E.18329
G1 X129.022 Y104.232 E.01946
M73 P9 R4
G1 X125.768 Y100.978 E.15577
G1 X126.344 Y100.978 E.0195
G1 X129.022 Y103.656 E.12819
G1 X129.185 Y103.196 E.01652
;WIDTH:0.38292
G1 X129.166 Y103.267 E.00208
G1 X129.237 Y103.248 E.00208
G1 X129.226 Y103.207 E.0012
;WIDTH:0.41646
G1 X129.124 Y103.143 E.00374
;WIDTH:0.449999
G1 X129.022 Y103.08 E.00406
G1 X126.92 Y100.978 E.10062
G1 X126.857 Y100.876 E.00406
;WIDTH:0.41646
G1 X126.793 Y100.774 E.00374
;WIDTH:0.38292
G1 X126.804 Y100.815 E.0012
G1 X126.733 Y100.834 E.00208
G1 X126.752 Y100.763 E.00208
;WIDTH:0.449999
G1 X127.495 Y100.978 E.02618
G1 X129.022 Y100.978 E.05169
G1 X129.022 Y102.505 E.05169
G1 X127.639 Y101.122 E.0662
M204 P2500
G1 X127.639 Y101.122 F18000
G1 X128.559 Y101.366
M204 P3000
;WIDTH:0.530084
G1 F2547
G2 X128.618 Y101.382 I.017 J.056 E.01225
M204 P2500
;LAYER_CHANGE
;Z:0.8
;HEIGHT:0.2
;BEFORE_LAYER_CHANGE
G92 E0.0
;0.8
M201 X3999.92 Y3999.92

G1 E-.7 F2100
G1 X128.618 Y101.382 Z.6 F18000
G1 X129.368 Y109.368 Z.8
;AFTER_LAYER_CHANGE
;0.8
M74 W0.0732788

G1 X129.368 Y109.368
G1 Z.8 F720
G1 E.7 F1500
;TYPE:Perimeter
;WIDTH:0.449999
G1 F2645
G1 X120.632 Y109.368 E.2957
G1 X120.632 Y100.632 E.2957
G1 X129.368 Y100.632 E.2957
G1 X129.368 Y109.308 E.29367
G1 X129.775 Y109.775 F18000
M204 P1500
;TYPE:External perimeter
G1 F2645
G1 X120.225 Y109.775 E.32326
G1 X120.225 Y100.225 E.32326
G1 X129.775 Y100.225 E.32326
G1 X129.775 Y109.715 E.32122
M204 P2500
G1 X129.379 Y109.774 F18000
G1 E-.7 F2100
G1 X121.089 Y101.011 Z1.011 F18000
G1 Z.8 F720
G1 E.7 F1500
M204 P3000
;TYPE:Solid infill
;WIDTH:0.548766
G1 F2645
G2 X121.072 Y101.072 I-.059 J.017 E.01322
;WIDTH:0.449999
G1 X120.978 Y101.722 E.02223
G1 X121.722 Y100.978 E.03561
G1 X122.298 Y100.978 E.0195
M73 Q10 S4
G1 X120.978 Y102.298 E.06319
G1 X120.978 Y102.874 E.0195
G1 X122.874 Y100.978 E.09076
G1 X123.45 Y100.978 E.0195
G1 X120.978 Y103.45 E.11833
G1 X120.978 Y104.025 E.01946
M73 P10 R4
G1 X124.025 Y100.978 E.14586
G1 X124.601 Y100.978 E.0195
G1 X120.978 Y104.601 E.17343
G1 X120.978 Y105.177 E.0195
G1 X125.177 Y100.978 E.201
G1 X125.752 Y100.978 E.01946
G1 X120.978 Y105.752 E.22853
G1 X120.978 Y106.328 E.0195
G1 X126.328 Y100.978 E.2561
G1 X126.904 Y100.978 E.0195
G1 X120.978 Y106.904 E.28367
G1 X120.978 Y107.479 E.01946
G1 X127.479 Y100.978 E.3112
G1 X128.055 Y100.978 E.0195
G1 X120.978 Y108.055 E.33877
G1 X120.978 Y108.631 E.0195
G1 X128.631 Y100.978 E.36634
G1 X129.161 Y100.869 E.01832
;WIDTH:0.38292
G1 X129.09 Y100.85 E.00208
G1 X129.109 Y100.921 E.00208
G1 X129.15 Y100.91 E.0012
;WIDTH:0.41646
G1 X129.086 Y101.036 E.00439
;WIDTH:0.449999
G1 X129.022 Y101.163 E.00481
G1 X121.163 Y109.022 E.37621
G1 X121.036 Y109.086 E.00481
;WIDTH:0.41646
G1 X120.91 Y109.15 E.00439
;WIDTH:0.38292
G1 X120.869 Y109.161 E.0012
G1 X120.85 Y109.09 E.00208
G1 X120.921 Y109.109 E.00208
M204 P2500
G1 X120.921 Y109.109 F18000
G1 X121.738 Y109.022
M204 P3000
;WIDTH:0.449999
G1 F2645
G1 X129.022 Y101.738 E.34868
G1 X129.022 Y102.314 E.0195
G1 X122.314 Y109.022 E.32111
G1 X122.89 Y109.022 E.0195
G1 X129.022 Y102.89 E.29354
G1 X129.022 Y103.465 E.01946
G1 X123.465 Y109.022 E.26601
G1 X124.041 Y109.022 E.0195
M73 Q11 S4
G1 X129.022 Y104.041 E.23844
G1 X129.022 Y104.617 E.0195
M73 P11 R4
G1 X124.617 Y109.022 E.21086
G1 X125.193 Y109.022 E.0195
G1 X129.022 Y105.193 E.18329
G1 X129.022 Y105.768 E.01946
G1 X125.768 Y109.022 E.15577
G1 X126.344 Y109.022 E.0195
G1 X129.022 Y106.344 E.12819
G1 X129.237 Y106.752 E.01561
;WIDTH:0.38292
G1 X129.166 Y106.733 E.00208
G1 X129.185 Y106.804 E.00208
G1 X129.226 Y106.793 E.0012
;WIDTH:0.41646
G1 X129.124 Y106.857 E.00374
;WIDTH:0.449999
G1 X129.022 Y106.92 E.00406
G1 X126.92 Y109.022 E.10062
G1 X126.857 Y109.124 E.00406
;WIDTH:0.41646
G1 X126.793 Y109.226 E.00374
;WIDTH:0.38292
G1 X126.752 Y109.237 E.0012
G1 X126.733 Y109.166 E.00208
G1 X126.804 Y109.185 E.00208
M204 P2500
G1 E-.7 F2100
G1 X126.804 Y109.185 F18000
G1 X128.878 Y107.639 Z.845
G1 Z.8 F720
G1 E.7 F1500
M204 P3000
;WIDTH:0.449999
G1 F2645
G1 X127.495 Y109.022 E.0662
G1 X129.022 Y109.022 E.05169
G1 X129.022 Y107.495 E.05169
M204 P2500
G1 X129.022 Y107.495 F18000
G1 X128.634 Y108.559
M204 P3000
;WIDTH:0.530084
G1 F2645
G2 X128.618 Y108.618 I-.056 J.017 E.01225
M204 P2500
M106 S255
;LAYER_CHANGE
;Z:1
;HEIGHT:0.2
;BEFORE_LAYER_CHANGE
G92 E0.0
;1
M201 X3999.89 Y3999.89

G1 X128.618 Y108.618 Z.8 F18000
G1 X129.368 Y109.368 Z1 F4386.046
;AFTER_LAYER_CHANGE
;1
M74 W0.0983433

G1 X129.368 Y109.368 F18000
G1 Z1 F720
;TYPE:Perimeter
;WIDTH:0.449999
G1 F1200
G1 X120.632 Y109.368 E.2957
G1 X120.632 Y100.632 E.2957
G1 X129.368 Y100.632 E.2957
G1 X129.368 Y109.308 E.29367
G1 X129.775 Y109.775 F18000
M204 P1500
;TYPE:External perimeter
G1 F1200
M73 Q12 S4
G1 X120.225 Y109.775 E.32326
G1 X120.225 Y100.225 E.32326
M73 P12 R4
G1 X129.775 Y100.225 E.32326
G1 X129.775 Y109.715 E.32122
M204 P2500
G1 X129.379 Y109.774 F18000
G1 E-.7 F2100
G1 X123.346 Y109.022 Z1.106 F18000
G1 Z1 F720
G1 E.7 F1500
M204 P4000
