; generated by PrusaSlicer 2.8.1+MacOS-arm64 on 2024-11-21 at 18:09:51 UTC

; external perimeters extrusion width = 0.45mm
; perimeters extrusion width = 0.45mm
; infill extrusion width = 0.45mm
; solid infill extrusion width = 0.45mm
; top infill extrusion width = 0.42mm
; first layer extrusion width = 0.50mm

M73 P0 R76
M73 Q0 S78
M201 X4000 Y4000 Z200 E2500 ; sets maximum accelerations, mm/sec^2
M203 X300 Y300 Z40 E100 ; sets maximum feedrates, mm / sec
M204 P4000 R1200 T4000 ; sets acceleration (P, T) and retract acceleration (R), mm/sec^2
M205 X8.00 Y8.00 Z2.00 E10.00 ; sets the jerk limits, mm/sec
M205 S0 T0 ; sets the minimum extruding and travel feed rate, mm/sec

M486 S0
M486 AShape-Box
M486 S-1

;TYPE:Custom
M17 ; enable steppers
M862.1 P0.4 A0 F1 ; nozzle check
M862.3 P "MK4S" ; printer model check
M862.5 P2 ; g-code level check
M862.6 P"Input shaper" ; FW feature check
M115 U6.1.3+7898

M555 X75 Y51 W100 H104

G90 ; use absolute coordinates
M83 ; extruder relative mode

M140 S60 ; set bed temp
M104 T0 S170 ; set extruder temp for bed leveling
M109 T0 R170 ; wait for temp

M84 E ; turn off E motor

G28 ; home all without mesh bed level

G1 X42 Y-4 Z5 F4800

M302 S160 ; lower cold extrusion limit to 160C


G1 E-2 F2400 ; retraction


M84 E ; turn off E motor

G29 P9 X10 Y-4 W32 H4

M106 S100

G0 Z40 F10000

M190 S60 ; wait for bed temp

M107

;
; MBL
;
M84 E ; turn off E motor
G29 P1 ; invalidate mbl & probe print area
G29 P1 X0 Y0 W50 H20 C ; probe near purge place
G29 P3.2 ; interpolate mbl probes
G29 P3.13 ; extrapolate mbl outside probe area
G29 A ; activate mbl

; prepare for purge
M104 S230
G0 X0 Y-4 Z15 F4800 ; move away and ready for the purge
M109 S230

G92 E0
M569 S0 E ; set spreadcycle mode for extruder

;
; Extrude purge line
;
G92 E0 ; reset extruder position
G1 E2 F2400 ; deretraction after the initial one before nozzle cleaning
G0 E7 X15 Z0.2 F500 ; purge
G0 X25 E4 F500 ; purge
G0 X35 E4 F650 ; purge
G0 X45 E4 F800 ; purge
G0 X48 Z0.05 F8000 ; wipe, move close to the bed
G0 X51 Z0.2 F8000 ; wipe, move quickly away from the bed

G92 E0
M221 S100 ; set flow to 100%
G21 ; set units to millimeters
G90 ; use absolute coordinates
M83 ; use relative distances for extrusion
M572 S0.036 ; Filament gcode

M142 S36 ; set heatbreak target temp
M107
;LAYER_CHANGE
;Z:0.2
;HEIGHT:0.2
G1 E-.7 F2100
G1 Z.8 F720
M486 S0
G1 X174.093 Y154.093 F18000
G1 Z.2 F720
G1 E.7 F1500
M204 P500
;TYPE:Perimeter
;WIDTH:0.499999
G1 F2400
G1 X75.907 Y154.093 E3.73168
G1 X75.907 Y55.907 E3.73168
G1 X174.093 Y55.907 E3.73168
G1 X174.093 Y105 E1.86584
G1 X174.093 Y154.033 E1.86356
M204 P2500
M204 T4000
G1 X174.55 Y154.55 F18000
M204 P500
;TYPE:External perimeter
G1 F2400
G1 X75.45 Y154.55 E3.76642
G1 X75.45 Y55.45 E3.76642
G1 X174.55 Y55.45 E3.76642
G1 X174.55 Y105 E1.88321
M73 Q0 S77
G1 X174.55 Y154.49 E1.88093
M204 P2500
G1 X174.154 Y154.549 F18000
G1 E-.7 F2100
G1 X173.839 Y128.032 Z.663 F18000
G1 X173.792 Y124.105 Z.723
G1 X173.746 Y120.178 Z.766
G1 X173.652 Y112.324 Z.8
G1 X172.984 Y56.09
G1 Z.2 F720
G1 E.7 F1500
M204 P500
;TYPE:Solid infill
;WIDTH:0.501208
G1 F2400
G1 X173.704 Y56.811 E.03883
G1 X173.704 Y57.459 E.02469
G1 X172.541 Y56.296 E.06268
G1 X171.893 Y56.296 E.02469
G1 X173.704 Y58.107 E.0976
G1 X173.704 Y58.755 E.02469
G1 X171.245 Y56.296 E.13252
G1 X170.597 Y56.296 E.02469
G1 X173.704 Y59.403 E.16744
G1 X173.704 Y60.051 E.02469
G1 X169.949 Y56.296 E.20236
G1 X169.301 Y56.296 E.02469
G1 X173.704 Y60.699 E.23728
G1 X173.704 Y61.348 E.02473
G1 X168.652 Y56.296 E.27226
G1 X168.004 Y56.296 E.02469
G1 X173.704 Y61.996 E.30718
G1 X173.704 Y62.644 E.02469
G1 X167.356 Y56.296 E.3421
G1 X166.708 Y56.296 E.02469
G1 X173.704 Y63.292 E.37702
G1 X173.704 Y63.94 E.02469
G1 X166.06 Y56.296 E.41194
G1 X165.412 Y56.296 E.02469
G1 X173.704 Y64.588 E.44687
G1 X173.704 Y65.236 E.02469
G1 X164.764 Y56.296 E.48179
G1 X164.116 Y56.296 E.02469
G1 X173.704 Y65.884 E.51671
G1 X173.704 Y66.533 E.02473
G1 X163.467 Y56.296 E.55168
G1 X162.819 Y56.296 E.02469
G1 X173.704 Y67.181 E.58661
G1 X173.704 Y67.829 E.02469
G1 X162.171 Y56.296 E.62153
G1 X161.523 Y56.296 E.02469
G1 X173.704 Y68.477 E.65645
G1 X173.704 Y69.125 E.02469
G1 X160.875 Y56.296 E.69137
G1 X160.227 Y56.296 E.02469
G1 X173.704 Y69.773 E.72629
G1 X173.704 Y70.421 E.02469
G1 X159.579 Y56.296 E.76121
G1 X158.931 Y56.296 E.02469
G1 X173.704 Y71.069 E.79613
G1 X173.704 Y71.717 E.02469
G1 X158.283 Y56.296 E.83106
G1 X157.634 Y56.296 E.02473
G1 X173.704 Y72.366 E.86603
G1 X173.704 Y73.014 E.02469
G1 X156.986 Y56.296 E.90095
G1 X156.338 Y56.296 E.02469
G1 X173.704 Y73.662 E.93587
G1 X173.704 Y74.31 E.02469
G1 X155.69 Y56.296 E.9708
G1 X155.042 Y56.296 E.02469
G1 X173.704 Y74.958 E1.00572
G1 X173.704 Y75.606 E.02469
G1 X154.394 Y56.296 E1.04064
G1 X153.746 Y56.296 E.02469
G1 X173.704 Y76.254 E1.07556
G1 X173.704 Y76.902 E.02469
G1 X153.098 Y56.296 E1.11048
G1 X152.449 Y56.296 E.02473
G1 X173.704 Y77.551 E1.14546
G1 X173.704 Y78.199 E.02469
G1 X151.801 Y56.296 E1.18038
G1 X151.153 Y56.296 E.02469
M73 P1 R75
M73 Q1 S77
G1 X173.704 Y78.847 E1.2153
G1 X173.704 Y79.495 E.02469
G1 X150.505 Y56.296 E1.25022
G1 X149.857 Y56.296 E.02469
G1 X173.704 Y80.143 E1.28514
G1 X173.704 Y80.791 E.02469
G1 X149.209 Y56.296 E1.32006
G1 X148.561 Y56.296 E.02469
G1 X173.704 Y81.439 E1.35499
G1 X173.704 Y82.087 E.02469
G1 X147.913 Y56.296 E1.38991
G1 X147.265 Y56.296 E.02469
G1 X173.704 Y82.735 E1.42483
G1 X173.704 Y83.384 E.02473
G1 X146.616 Y56.296 E1.4598
G1 X145.968 Y56.296 E.02469
G1 X173.704 Y84.032 E1.49473
G1 X173.704 Y84.68 E.02469
G1 X145.32 Y56.296 E1.52965
G1 X144.672 Y56.296 E.02469
G1 X173.704 Y85.328 E1.56457
G1 X173.704 Y85.976 E.02469
G1 X144.024 Y56.296 E1.59949
G1 X143.376 Y56.296 E.02469
G1 X173.704 Y86.624 E1.63441
G1 X173.704 Y87.272 E.02469
G1 X142.728 Y56.296 E1.66933
G1 X142.08 Y56.296 E.02469
G1 X173.704 Y87.92 E1.70425
G1 X173.704 Y88.569 E.02473
G1 X141.432 Y56.296 E1.7392
G1 X140.783 Y56.296 E.02473
G1 X173.704 Y89.217 E1.77415
G1 X173.704 Y89.865 E.02469
G1 X140.135 Y56.296 E1.80907
G1 X139.487 Y56.296 E.02469
G1 X173.704 Y90.513 E1.84399
G1 X173.704 Y91.161 E.02469
G1 X138.839 Y56.296 E1.87892
G1 X138.191 Y56.296 E.02469
G1 X173.704 Y91.809 E1.91384
G1 X173.704 Y92.457 E.02469
G1 X137.543 Y56.296 E1.94876
G1 X136.895 Y56.296 E.02469
G1 X173.704 Y93.105 E1.98368
G1 X173.704 Y93.753 E.02469
G1 X136.247 Y56.296 E2.0186
G1 X135.598 Y56.296 E.02473
G1 X173.704 Y94.402 E2.05358
G1 X173.704 Y95.05 E.02469
G1 X134.95 Y56.296 E2.0885
G1 X134.302 Y56.296 E.02469
G1 X173.704 Y95.698 E2.12342
G1 X173.704 Y96.346 E.02469
G1 X133.654 Y56.296 E2.15834
G1 X133.006 Y56.296 E.02469
G1 X173.704 Y96.994 E2.19326
G1 X173.704 Y97.642 E.02469
G1 X132.358 Y56.296 E2.22818
G1 X131.71 Y56.296 E.02469
G1 X173.704 Y98.29 E2.26311
G1 X173.704 Y98.938 E.02469
M73 Q1 S76
G1 X131.062 Y56.296 E2.29803
G1 X130.414 Y56.296 E.02469
G1 X173.704 Y99.586 E2.33295
G1 X173.704 Y100.235 E.02473
G1 X129.765 Y56.296 E2.36792
G1 X129.117 Y56.296 E.02469
G1 X173.704 Y100.883 E2.40285
G1 X173.704 Y101.531 E.02469
G1 X128.469 Y56.296 E2.43777
G1 X127.821 Y56.296 E.02469
M73 P2 R75
G1 X173.704 Y102.179 E2.47269
G1 X173.704 Y102.827 E.02469
M73 Q2 S76
G1 X127.173 Y56.296 E2.50761
G1 X126.525 Y56.296 E.02469
G1 X173.704 Y103.475 E2.54253
G1 X173.704 Y104.123 E.02469
G1 X125.877 Y56.296 E2.57745
G1 X125.229 Y56.296 E.02469
G1 X173.704 Y104.771 E2.61237
G1 X173.704 Y105.42 E.02473
G1 X124.58 Y56.296 E2.64735
G1 X123.932 Y56.296 E.02469
G1 X173.704 Y106.068 E2.68227
G1 X173.704 Y106.716 E.02469
G1 X123.284 Y56.296 E2.71719
G1 X122.636 Y56.296 E.02469
M73 P2 R74
G1 X173.704 Y107.364 E2.75211
G1 X173.704 Y108.012 E.02469
G1 X121.988 Y56.296 E2.78704
G1 X121.34 Y56.296 E.02469
G1 X173.704 Y108.66 E2.82196
G1 X173.704 Y109.308 E.02469
G1 X120.692 Y56.296 E2.85688
G1 X120.044 Y56.296 E.02469
G1 X173.704 Y109.956 E2.8918
G1 X173.704 Y110.604 E.02469
G1 X119.396 Y56.296 E2.92672
G1 X118.747 Y56.296 E.02473
G1 X173.704 Y111.253 E2.9617
G1 X173.704 Y111.901 E.02469
G1 X118.099 Y56.296 E2.99662
G1 X117.451 Y56.296 E.02469
G1 X173.704 Y112.549 E3.03154
G1 X173.704 Y113.197 E.02469
G1 X116.803 Y56.296 E3.06646
G1 X116.155 Y56.296 E.02469
G1 X173.704 Y113.845 E3.10138
G1 X173.704 Y114.493 E.02469
G1 X115.507 Y56.296 E3.1363
G1 X114.859 Y56.296 E.02469
G1 X173.704 Y115.141 E3.17123
G1 X173.704 Y115.789 E.02469
G1 X114.211 Y56.296 E3.20615
G1 X113.562 Y56.296 E.02473
G1 X173.704 Y116.438 E3.24112
G1 X173.704 Y117.086 E.02469
G1 X112.914 Y56.296 E3.27604
G1 X112.266 Y56.296 E.02469
M73 P3 R74
G1 X173.704 Y117.734 E3.31096
G1 X173.704 Y118.382 E.02469
M73 Q3 S76
G1 X111.618 Y56.296 E3.34589
G1 X110.97 Y56.296 E.02469
M73 Q3 S75
G1 X173.704 Y119.03 E3.38081
G1 X173.704 Y119.678 E.02469
G1 X110.322 Y56.296 E3.41573
G1 X109.674 Y56.296 E.02469
G1 X173.704 Y120.326 E3.45065
G1 X173.704 Y120.974 E.02469
G1 X109.026 Y56.296 E3.48557
G1 X108.378 Y56.296 E.02469
G1 X173.704 Y121.622 E3.52049
G1 X173.704 Y122.271 E.02473
G1 X107.729 Y56.296 E3.55547
G1 X107.081 Y56.296 E.02469
G1 X173.704 Y122.919 E3.59039
G1 X173.704 Y123.567 E.02469
G1 X106.433 Y56.296 E3.62531
G1 X105.785 Y56.296 E.02469
G1 X173.704 Y124.215 E3.66023
G1 X173.704 Y124.863 E.02469
M73 P3 R73
G1 X105.137 Y56.296 E3.69515
G1 X104.489 Y56.296 E.02469
G1 X173.704 Y125.511 E3.73008
G1 X173.704 Y126.159 E.02469
G1 X103.841 Y56.296 E3.765
G1 X103.193 Y56.296 E.02469
G1 X173.704 Y126.807 E3.79992
G1 X173.704 Y127.456 E.02473
G1 X102.544 Y56.296 E3.83489
G1 X101.896 Y56.296 E.02469
G1 X173.704 Y128.104 E3.86982
G1 X173.704 Y128.752 E.02469
G1 X101.248 Y56.296 E3.90474
G1 X100.6 Y56.296 E.02469
M73 P4 R73
G1 X173.704 Y129.4 E3.93966
G1 X173.704 Y130.048 E.02469
G1 X99.952 Y56.296 E3.97458
G1 X99.304 Y56.296 E.02469
M73 Q4 S75
G1 X173.704 Y130.696 E4.0095
G1 X173.704 Y131.344 E.02469
G1 X98.656 Y56.296 E4.04442
G1 X98.008 Y56.296 E.02469
G1 X173.704 Y131.992 E4.07935
G1 X173.704 Y132.64 E.02469
G1 X97.36 Y56.296 E4.11427
G1 X96.711 Y56.296 E.02473
G1 X173.704 Y133.289 E4.14924
G1 X173.704 Y133.937 E.02469
G1 X96.063 Y56.296 E4.18416
G1 X95.415 Y56.296 E.02469
M73 Q4 S74
G1 X173.704 Y134.585 E4.21908
G1 X173.704 Y135.233 E.02469
G1 X94.767 Y56.296 E4.25401
G1 X94.119 Y56.296 E.02469
G1 X173.704 Y135.881 E4.28893
G1 X173.704 Y136.529 E.02469
G1 X93.471 Y56.296 E4.32385
G1 X92.823 Y56.296 E.02469
G1 X173.704 Y137.177 E4.35877
G1 X173.704 Y137.825 E.02469
G1 X92.175 Y56.296 E4.39369
G1 X91.526 Y56.296 E.02473
G1 X173.704 Y138.474 E4.42867
G1 X173.704 Y139.122 E.02469
M73 P4 R72
G1 X90.878 Y56.296 E4.46359
G1 X90.23 Y56.296 E.02469
G1 X173.704 Y139.77 E4.49851
G1 X173.704 Y140.418 E.02469
M73 P5 R72
G1 X89.582 Y56.296 E4.53343
G1 X88.934 Y56.296 E.02469
M73 Q5 S74
G1 X173.704 Y141.066 E4.56835
G1 X173.704 Y141.714 E.02469
G1 X88.286 Y56.296 E4.60327
G1 X87.638 Y56.296 E.02469
G1 X173.704 Y142.362 E4.6382
G1 X173.704 Y143.01 E.02469
G1 X86.99 Y56.296 E4.67312
G1 X86.342 Y56.296 E.02469
G1 X173.704 Y143.658 E4.70804
G1 X173.704 Y144.307 E.02473
G1 X85.693 Y56.296 E4.74301
G1 X85.045 Y56.296 E.02469
G1 X173.704 Y144.955 E4.77794
G1 X173.704 Y145.603 E.02469
G1 X84.397 Y56.296 E4.81286
G1 X83.749 Y56.296 E.02469
G1 X173.704 Y146.251 E4.84778
G1 X173.704 Y146.899 E.02469
M73 Q5 S73
G1 X83.101 Y56.296 E4.8827
G1 X82.453 Y56.296 E.02469
G1 X173.704 Y147.547 E4.91762
G1 X173.704 Y148.195 E.02469
G1 X81.805 Y56.296 E4.95254
G1 X81.157 Y56.296 E.02469
G1 X173.704 Y148.843 E4.98746
G1 X173.704 Y149.492 E.02473
M73 P6 R72
G1 X80.508 Y56.296 E5.02244
G1 X79.86 Y56.296 E.02469
G1 X173.704 Y150.14 E5.05736
G1 X173.704 Y150.788 E.02469
M73 Q6 S73
G1 X79.212 Y56.296 E5.09228
G1 X78.564 Y56.296 E.02469
M73 P6 R71
G1 X173.704 Y151.436 E5.1272
G1 X173.704 Y152.084 E.02469
G1 X77.916 Y56.296 E5.16213
G1 X77.268 Y56.296 E.02469
G1 X173.704 Y152.732 E5.19705
G1 X173.704 Y153.38 E.02469
G1 X76.62 Y56.296 E5.23197
G1 X76.296 Y56.296 E.01235
G1 X76.296 Y56.62 E.01235
G1 X173.38 Y153.704 E5.23197
G1 X172.732 Y153.704 E.02469
G1 X76.296 Y57.268 E5.19705
G1 X76.296 Y57.916 E.02469
G1 X172.084 Y153.704 E5.16213
G1 X171.436 Y153.704 E.02469
G1 X76.296 Y58.564 E5.1272
G1 X76.296 Y59.212 E.02469
G1 X170.788 Y153.704 E5.09228
G1 X170.14 Y153.704 E.02469
G1 X76.296 Y59.86 E5.05736
G1 X76.296 Y60.508 E.02469
M73 P7 R71
G1 X169.492 Y153.704 E5.02244
G1 X168.844 Y153.704 E.02469
M73 Q6 S72
G1 X76.296 Y61.156 E4.98752
G1 X76.296 Y61.804 E.02469
M73 Q7 S72
G1 X168.196 Y153.704 E4.9526
G1 X167.547 Y153.704 E.02473
G1 X76.296 Y62.453 E4.91762
G1 X76.296 Y63.101 E.02469
G1 X166.899 Y153.704 E4.8827
G1 X166.251 Y153.704 E.02469
G1 X76.296 Y63.749 E4.84778
G1 X76.296 Y64.397 E.02469
G1 X165.603 Y153.704 E4.81286
G1 X164.955 Y153.704 E.02469
M73 P7 R70
G1 X76.296 Y65.045 E4.77794
G1 X76.296 Y65.693 E.02469
G1 X164.307 Y153.704 E4.74301
G1 X163.659 Y153.704 E.02469
G1 X76.296 Y66.341 E4.70809
G1 X76.296 Y66.989 E.02469
G1 X163.011 Y153.704 E4.67317
G1 X162.362 Y153.704 E.02473
G1 X76.296 Y67.638 E4.6382
G1 X76.296 Y68.286 E.02469
G1 X161.714 Y153.704 E4.60327
G1 X161.066 Y153.704 E.02469
G1 X76.296 Y68.934 E4.56835
G1 X76.296 Y69.582 E.02469
G1 X160.418 Y153.704 E4.53343
G1 X159.77 Y153.704 E.02469
M73 P8 R70
G1 X76.296 Y70.23 E4.49851
G1 X76.296 Y70.878 E.02469
G1 X159.122 Y153.704 E4.46359
G1 X158.474 Y153.704 E.02469
M73 Q8 S72
G1 X76.296 Y71.526 E4.42867
G1 X76.296 Y72.174 E.02469
G1 X157.826 Y153.704 E4.39375
G1 X157.178 Y153.704 E.02469
G1 X76.296 Y72.822 E4.35882
G1 X76.296 Y73.471 E.02473
M73 Q8 S71
G1 X156.529 Y153.704 E4.32385
G1 X155.881 Y153.704 E.02469
G1 X76.296 Y74.119 E4.28893
G1 X76.296 Y74.767 E.02469
G1 X155.233 Y153.704 E4.25401
G1 X154.585 Y153.704 E.02469
G1 X76.296 Y75.415 E4.21908
G1 X76.296 Y76.063 E.02469
G1 X153.937 Y153.704 E4.18416
G1 X153.289 Y153.704 E.02469
G1 X76.296 Y76.711 E4.14924
G1 X76.296 Y77.359 E.02469
G1 X152.641 Y153.704 E4.11432
G1 X151.993 Y153.704 E.02469
M73 P8 R69
G1 X76.296 Y78.007 E4.0794
G1 X76.296 Y78.656 E.02473
G1 X151.344 Y153.704 E4.04442
G1 X150.696 Y153.704 E.02469
G1 X76.296 Y79.304 E4.0095
G1 X76.296 Y79.952 E.02469
G1 X150.048 Y153.704 E3.97458
G1 X149.4 Y153.704 E.02469
M73 P9 R69
G1 X76.296 Y80.6 E3.93966
G1 X76.296 Y81.248 E.02469
G1 X148.752 Y153.704 E3.90474
G1 X148.104 Y153.704 E.02469
G1 X76.296 Y81.896 E3.86982
G1 X76.296 Y82.544 E.02469
M73 Q9 S71
G1 X147.456 Y153.704 E3.83489
G1 X146.808 Y153.704 E.02469
G1 X76.296 Y83.192 E3.79997
G1 X76.296 Y83.84 E.02469
G1 X146.16 Y153.704 E3.76505
G1 X145.511 Y153.704 E.02473
G1 X76.296 Y84.489 E3.73008
G1 X76.296 Y85.137 E.02469
G1 X144.863 Y153.704 E3.69515
G1 X144.215 Y153.704 E.02469
G1 X76.296 Y85.785 E3.66023
G1 X76.296 Y86.433 E.02469
G1 X143.567 Y153.704 E3.62531
G1 X142.919 Y153.704 E.02469
G1 X76.296 Y87.081 E3.59039
G1 X76.296 Y87.729 E.02469
M73 Q9 S70
G1 X142.271 Y153.704 E3.55547
G1 X141.623 Y153.704 E.02469
G1 X76.296 Y88.377 E3.52055
G1 X76.296 Y89.025 E.02469
G1 X140.975 Y153.704 E3.48563
G1 X140.327 Y153.704 E.02469
G1 X76.296 Y89.673 E3.4507
G1 X76.296 Y90.322 E.02473
G1 X139.678 Y153.704 E3.41573
G1 X139.03 Y153.704 E.02469
G1 X76.296 Y90.97 E3.38081
G1 X76.296 Y91.618 E.02469
G1 X138.382 Y153.704 E3.34589
G1 X137.734 Y153.704 E.02469
M73 P10 R69
G1 X76.296 Y92.266 E3.31096
G1 X76.296 Y92.914 E.02469
G1 X137.086 Y153.704 E3.27604
G1 X136.438 Y153.704 E.02469
M73 P10 R68
G1 X76.296 Y93.562 E3.24112
G1 X76.296 Y94.21 E.02469
G1 X135.79 Y153.704 E3.2062
G1 X135.142 Y153.704 E.02469
M73 Q10 S70
G1 X76.296 Y94.858 E3.17128
G1 X76.296 Y95.507 E.02473
G1 X134.493 Y153.704 E3.1363
G1 X133.845 Y153.704 E.02469
G1 X76.296 Y96.155 E3.10138
G1 X76.296 Y96.803 E.02469
G1 X133.197 Y153.704 E3.06646
G1 X132.549 Y153.704 E.02469
G1 X76.296 Y97.451 E3.03154
G1 X76.296 Y98.099 E.02469
G1 X131.901 Y153.704 E2.99662
G1 X131.253 Y153.704 E.02469
G1 X76.296 Y98.747 E2.9617
G1 X76.296 Y99.395 E.02469
G1 X130.605 Y153.704 E2.92677
G1 X129.957 Y153.704 E.02469
G1 X76.296 Y100.043 E2.89185
G1 X76.296 Y100.691 E.02469
G1 X129.309 Y153.704 E2.85693
G1 X128.66 Y153.704 E.02473
G1 X76.296 Y101.34 E2.82196
